itou/static/img/job_seeker_signup_situation.svg

<svg width="402" height="326" viewBox="0 0 402 326" fill="none" xmlns="http://www.w3.org/2000/svg">
<g clip-path="url(#clip0)">
<path d="M270.841 299.384C252.13 299.434 233.438 298.209 214.893 295.719C214.288 295.642 213.674 295.555 213.065 295.464C208.513 294.817 203.958 294.078 199.531 293.265C179.607 289.623 160.818 284.302 143.687 277.451C86.6784 254.651 50.8345 259.504 30.8044 267.589C9.12742 276.339 0.794687 290.654 0.713013 290.798L0 290.394C0.0826689 290.248 8.5229 275.719 30.4367 266.853C43.2851 261.655 58.1904 259.384 74.742 260.099C95.4025 260.994 118.701 266.576 143.992 276.689C161.072 283.52 179.808 288.826 199.679 292.459C204.095 293.269 208.639 294.007 213.183 294.653C213.79 294.744 214.398 294.829 215.001 294.906C265.27 301.82 313.763 297.651 345.594 292.936C371.831 289.051 388.715 284.507 388.883 284.462L389.097 285.253C388.93 285.299 372.003 289.854 345.714 293.747C320.926 297.438 295.903 299.322 270.841 299.384Z" fill="#3F3D56"/>
<path d="M270.897 64.1336C256.445 64.1338 242.375 63.4576 228.8 62.1059C197.606 58.9999 168.97 52.2983 143.687 42.1873C86.6784 19.3881 50.8345 24.24 30.8044 32.3255C9.12742 41.0752 0.794687 55.3912 0.713013 55.5346L0 55.13C0.0826689 54.9843 8.5229 40.4556 30.4367 31.5901C43.2853 26.3919 58.1904 24.1192 74.742 24.8361C95.4025 25.7304 118.701 31.3121 143.992 41.4261C201.09 64.2609 264.627 65.1583 307.873 61.8928C354.748 58.3517 388.547 49.2898 388.883 49.1987L389.097 49.9896C388.761 50.0811 354.901 59.1606 307.953 62.7087C295.383 63.6587 283.005 64.1336 270.897 64.1336Z" fill="#3F3D56"/>
<path d="M268.774 3.96323C268.774 3.96323 252.656 -1.79195 242.295 21.2287C231.933 44.2494 215.815 69.5722 215.815 69.5722L225.026 71.8743C225.026 71.8743 227.328 55.7598 233.085 53.4577L230.782 74.1763C230.782 74.1763 299.858 98.3481 330.943 71.8743L329.791 63.817C329.791 63.817 334.396 64.9681 334.396 71.8743L337.85 68.4212C337.85 68.4212 334.396 61.515 324.035 52.3067C317.234 46.2628 314.897 34.7643 314.094 27.5753C313.492 21.5723 311.09 15.8914 307.202 11.2774C300.317 3.2989 287.77 -5.18111 268.774 3.96323Z" fill="#2F2E41"/>
<path d="M366.598 134.229C366.598 134.229 396.928 160.093 401.389 175.255C405.849 190.417 384.439 192.201 384.439 192.201L338.052 196.66C338.052 196.66 337.16 218.066 329.131 220.741C321.103 223.417 327.501 185.345 327.501 185.345L372.843 172.58L352.325 151.174L366.598 134.229Z" fill="#FBBEBE"/>
<path d="M224.759 160.984L221.191 208.254L201.566 288.524C201.566 288.524 183.724 325.091 198.889 325.983C214.054 326.875 213.162 291.199 213.162 291.199L241.709 215.389L244.385 163.66L224.759 160.984Z" fill="#FBBEBE"/>
<path d="M274.715 78.0401C290.973 78.0401 304.153 64.8629 304.153 48.608C304.153 32.353 290.973 19.1758 274.715 19.1758C258.457 19.1758 245.277 32.353 245.277 48.608C245.277 64.8629 258.457 78.0401 274.715 78.0401Z" fill="#FBBEBE"/>
<path d="M261.334 62.8779C261.334 62.8779 272.039 101.229 255.09 111.04C238.14 120.85 297.909 127.985 313.966 98.5533C313.966 98.5533 285.42 88.7426 293.448 62.8779H261.334Z" fill="#FBBEBE"/>
<path d="M240.817 115.499L235.464 113.715C235.464 113.715 224.759 118.174 224.759 126.201C224.759 134.228 222.975 166.336 222.975 166.336L247.061 169.012L240.817 115.499Z" fill="#006ADC"/>
<path d="M345.654 293.342C312.723 298.219 264.726 302.158 214.949 295.313C214.945 294.821 214.945 294.342 214.945 293.875C214.945 291.092 215.052 288.34 215.265 285.62C217.815 252.126 235.074 224.201 241.752 214.524C242.088 214.033 242.4 213.59 242.679 213.196C243.757 211.684 244.384 210.885 244.384 210.885C244.384 210.885 296.124 210.04 322.885 220.742C324.176 221.284 325.357 222.056 326.37 223.021C336.348 232.227 342.211 262.114 345.654 293.342Z" fill="#2F2E41"/>
<path d="M326.455 103.013C326.455 103.013 338.052 96.7694 349.649 110.148L372.843 136.904L355.001 156.526L321.103 136.012L326.455 103.013Z" fill="#006ADC"/>
<path d="M242.905 48.7946C253.326 41.2541 261.762 32.5689 267.342 22.2375C267.342 22.2375 286.467 43.4832 298.155 44.5455C309.842 45.6078 299.217 19.0507 299.217 19.0507L277.967 13.7393L257.78 15.8638L241.842 26.4867L242.905 48.7946Z" fill="#2F2E41"/>
<path d="M309.506 96.7695C309.506 96.7695 297.022 116.504 259.553 107.083L238.29 112.937L235.464 113.715C235.464 113.715 238.14 167.228 245.277 177.039C252.413 186.85 250.629 192.201 248.845 193.093C247.061 193.985 242.601 192.201 245.277 196.661C247.953 201.12 251.521 198.444 247.953 201.12C244.385 203.796 242.601 213.606 242.601 213.606L326.455 224.309C326.455 224.309 323.779 189.525 330.915 171.688C338.052 153.85 339.836 146.715 339.836 146.715L334.484 102.121L309.506 96.7695Z" fill="#006ADC"/>
<path d="M135.23 79.3096H20.4441V222.763H135.23V79.3096Z" fill="#E6E6E6"/>
<path d="M53.0352 91.4004H28.4382V107.795H53.0352V91.4004Z" fill="white"/>
<path d="M123.752 123.37H28.6431V129.108H123.752V123.37Z" fill="white"/>
<path d="M123.752 138.535H28.6431V144.273H123.752V138.535Z" fill="white"/>
<path d="M123.752 153.7H28.6431V159.438H123.752V153.7Z" fill="white"/>
<path d="M123.752 168.865H28.6431V174.603H123.752V168.865Z" fill="white"/>
<path d="M123.752 184.03H28.6431V189.768H123.752V184.03Z" fill="white"/>
<path d="M157.778 222.557C157.773 227.971 155.814 233.201 152.261 237.286C148.708 241.371 143.8 244.037 138.439 244.794C133.077 245.552 127.623 244.349 123.077 241.408C118.531 238.466 115.2 233.984 113.695 228.783C112.191 223.583 112.613 218.015 114.886 213.101C117.159 208.188 121.128 204.259 126.066 202.037C131.003 199.815 136.577 199.45 141.763 201.007C146.948 202.565 151.398 205.941 154.293 210.515C156.57 214.119 157.778 218.295 157.778 222.557Z" fill="#006ADC"/>
<path d="M154.293 210.516L132.098 232.702C130.703 230.543 122.932 220.509 122.932 220.509C123.928 219.502 124.991 218.564 126.113 217.701L132.558 226.292L151.694 207.159C152.664 208.194 153.535 209.317 154.293 210.516Z" fill="white"/>
</g>
<defs>
<clipPath id="clip0">
<rect width="402" height="326" fill="white"/>
</clipPath>
</defs>
</svg>

<svg width="402" height="326" fill="none" xmlns="http://www.w3.org/2000/svg"><g clip-path="url(#a)"><path d="M270.84 299.38a412.15 412.15 0 0 1-57.77-3.92 340.8 340.8 0 0 1-13.54-2.2c-19.92-3.64-38.71-8.96-55.84-15.8-57.01-22.8-92.86-17.96-112.89-9.87-21.67 8.75-30 23.06-30.09 23.2l-.71-.4c.08-.14 8.52-14.67 30.44-23.54 12.85-5.2 27.75-7.47 44.3-6.75 20.66.9 43.96 6.48 69.25 16.59 17.08 6.83 35.82 12.14 55.69 15.77A342.07 342.07 0 0 0 215 294.9c50.27 6.91 98.76 2.74 130.6-1.97 26.23-3.89 43.11-8.43 43.28-8.48l.22.8c-.17.04-17.1 4.6-43.39 8.49a517.05 517.05 0 0 1-74.87 5.63ZM270.9 64.13c-14.45 0-28.52-.67-42.1-2.02-31.2-3.11-59.83-9.81-85.11-19.92-57.01-22.8-92.86-17.95-112.89-9.86C9.13 41.08.8 55.39.71 55.53l-.71-.4c.08-.15 8.52-14.67 30.44-23.54 12.85-5.2 27.75-7.47 44.3-6.75 20.66.89 43.96 6.47 69.25 16.59 57.1 22.83 120.64 23.73 163.88 20.46 46.88-3.54 80.68-12.6 81.01-12.7l.22.8c-.34.1-34.2 9.17-81.15 12.72a492.2 492.2 0 0 1-37.05 1.42Z" fill="#3F3D56"/><path d="M268.77 3.96s-16.11-5.75-26.47 17.27c-10.37 23.02-26.49 48.34-26.49 48.34l9.22 2.3s2.3-16.11 8.06-18.41l-2.3 20.72s69.07 24.17 100.15-2.3l-1.15-8.06s4.6 1.15 4.6 8.05l3.46-3.45s-3.45-6.9-13.81-16.11c-6.8-6.05-9.14-17.55-9.95-24.73-.6-6-3-11.69-6.89-16.3-6.88-7.98-19.43-16.46-38.43-7.32Z" fill="#2F2E41"/><path d="M366.6 134.23s30.33 25.86 34.79 41.03c4.46 15.16-16.95 16.94-16.95 16.94l-46.39 4.46s-.89 21.4-8.92 24.08c-8.03 2.68-1.63-35.4-1.63-35.4l45.34-12.76-20.51-21.4 14.27-16.95ZM224.76 160.98l-3.57 47.27-19.62 80.27s-17.85 36.57-2.68 37.46c15.16.9 14.27-34.78 14.27-34.78l28.55-75.81 2.67-51.73-19.62-2.68ZM274.71 78.04a29.44 29.44 0 1 0 .01-58.87 29.44 29.44 0 0 0 0 58.87Z" fill="#FBBEBE"/><path d="M261.33 62.88s10.7 38.35-6.24 48.16c-16.95 9.81 42.82 16.94 58.88-12.49 0 0-28.55-9.8-20.52-35.67h-32.12Z" fill="#FBBEBE"/><path d="m240.82 115.5-5.36-1.78s-10.7 4.45-10.7 12.48c0 8.03-1.78 40.14-1.78 40.14l24.08 2.67-6.24-53.51Z" fill="#006ADC"/><path d="M345.65 293.34c-32.93 4.88-80.92 8.82-130.7 1.97v-1.44c0-2.78.1-5.53.31-8.25 2.56-33.5 19.81-61.42 26.5-71.1a99.29 99.29 0 0 1 2.62-3.64s51.74-.84 78.5 9.86c1.3.54 2.48 1.32 3.49 2.28 9.98 9.2 15.84 39.1 19.28 70.32Z" fill="#2F2E41"/><path d="M326.45 103.01s11.6-6.24 23.2 7.14l23.2 26.75L355 156.53 321.1 136l5.35-33Z" fill="#006ADC"/><path d="M242.9 48.8c10.43-7.55 18.86-16.23 24.44-26.56 0 0 19.13 21.24 30.81 22.3 11.7 1.07 1.07-25.49 1.07-25.49l-21.25-5.31-20.19 2.12-15.94 10.63 1.06 22.3Z" fill="#2F2E41"/><path d="M309.5 96.77s-12.48 19.73-49.95 10.31l-21.26 5.86-2.83.78s2.68 53.5 9.82 63.32c7.13 9.81 5.35 15.16 3.56 16.05-1.78.9-6.24-.89-3.56 3.57 2.67 4.46 6.24 1.78 2.67 4.46-3.56 2.68-5.35 12.49-5.35 12.49l83.85 10.7s-2.67-34.78 4.47-52.62c7.13-17.84 8.92-24.97 8.92-24.97l-5.36-44.6-24.97-5.35Z" fill="#006ADC"/><path d="M135.23 79.31H20.44v143.45h114.79V79.31Z" fill="#E6E6E6"/><path d="M53.04 91.4h-24.6v16.4h24.6V91.4ZM123.75 123.37h-95.1v5.74h95.1v-5.74ZM123.75 138.53h-95.1v5.74h95.1v-5.74ZM123.75 153.7h-95.1v5.74h95.1v-5.74ZM123.75 168.87h-95.1v5.73h95.1v-5.73ZM123.75 184.03h-95.1v5.74h95.1v-5.74Z" fill="#fff"/><path d="M157.78 222.56a22.47 22.47 0 1 1-44.95-.04 22.47 22.47 0 0 1 44.95.04Z" fill="#006ADC"/><path d="m154.3 210.52-22.2 22.18c-1.4-2.16-9.17-12.2-9.17-12.2 1-1 2.06-1.94 3.18-2.8l6.45 8.6 19.13-19.14a22.47 22.47 0 0 1 2.6 3.36Z" fill="#fff"/></g><defs><clipPath id="a"><path fill="#fff" d="M0 0h402v326H0z"/></clipPath></defs></svg>
